distribute-horizontal-left.svg

<svg fill="currentColor" viewBox="0 0 24 24"><path d="M21 7v10h-5v5h-2V2h2v5zM5 2H3v20h2v-3h5V5H5z"/></svg>

<svg  viewBox="0 0 24 24" fill="currentColor"><path  d="M21 7V17H16V22H14V2H16V7H21M5 2H3V22H5V19H10V5H5V2Z"/></svg>
